X:548
T:Good Natured Man, The
T:(some chords may be incorrect)
R:Hornpipe
C:Trad.
O:Ireland
M:4/4
L:1/8
K:Cmaj
B|:"C"c2ec G2cG|"C"EFGE C2DE|"F"FGAG "Dm"FEDC|"G7"B,CA,B, G,3 B|
"C"c2ec GAcG|"C"EFGE CEDE|"F"FGAG "G7"FEDB,|  [1"C"D2CB, C3 B:|  [2 D2CB, CDEF ||
|:"C"G2GE c2cB|"Dm"A2AF d2dc|"C" B2 Bd c2 cd |"G7"BcdB "C"GBAB|"D7"c2 ec "G7"GAcG|
"C"EFGE CEDE|"C"FGAG FEDB,|  [1"F"D2CB, "G7"CDEF:| [2"C"D2CB, C4||

